icons/numix/32x32/mimetypes/application-rtf.svg

<?xml version="1.0" encoding="UTF-8" standalone="no"?>
<svg
   xmlns:dc="http://purl.org/dc/elements/1.1/"
   xmlns:cc="http://creativecommons.org/ns#"
   xmlns:rdf="http://www.w3.org/1999/02/22-rdf-syntax-ns#"
   xmlns:svg="http://www.w3.org/2000/svg"
   xmlns="http://www.w3.org/2000/svg"
   xmlns:sodipodi="http://sodipodi.sourceforge.net/DTD/sodipodi-0.dtd"
   xmlns:inkscape="http://www.inkscape.org/namespaces/inkscape"
   width="32"
   height="32"
   viewBox="0 0 32 32"
   id="svg2"
   version="1.1"
   inkscape:version="0.48.5 r10040"
   sodipodi:docname="application-rtf.svg">
  <metadata
     id="metadata40">
    <rdf:RDF>
      <cc:Work
         rdf:about="">
        <dc:format>image/svg+xml</dc:format>
        <dc:type
           rdf:resource="http://purl.org/dc/dcmitype/StillImage" />
      </cc:Work>
    </rdf:RDF>
  </metadata>
  <defs
     id="defs38" />
  <sodipodi:namedview
     pagecolor="#ffffff"
     bordercolor="#666666"
     borderopacity="1"
     objecttolerance="10"
     gridtolerance="10"
     guidetolerance="10"
     inkscape:pageopacity="0"
     inkscape:pageshadow="2"
     inkscape:window-width="1280"
     inkscape:window-height="970"
     id="namedview36"
     showgrid="true"
     inkscape:zoom="11.313709"
     inkscape:cx="9.3158209"
     inkscape:cy="8.1562068"
     inkscape:window-x="0"
     inkscape:window-y="0"
     inkscape:window-maximized="1"
     inkscape:current-layer="svg2">
    <inkscape:grid
       type="xygrid"
       id="grid3044" />
  </sodipodi:namedview>
  <path
     style="fill:#3468ce;fill-opacity:1"
     d="M 5.335888,2.967e-4 C 4.648414,3.117e-4 4,0.6767877 4,1.3940307 L 4,30.606268 C 4,31.282757 4.687474,32 5.335888,32 l 21.327333,0 c 0.648413,0 1.335888,-0.717243 1.335888,-1.393732 l 8.92e-4,-21.6062687 -9,-8.9999996 z"
     id="path4-1"
     inkscape:connector-curvature="0"
     sodipodi:nodetypes="ssssssccs" />
  <path
     style="fill:#000000;fill-opacity:0.19599998"
     d="M 21,8.9999993 28,16 28,8.9999993 z"
     id="path6-4"
     inkscape:connector-curvature="0"
     sodipodi:nodetypes="cccc" />
  <path
     style="fill:#ffffff;fill-opacity:0.39200003"
     d="m 19.000306,2.967e-4 8.991594,8.9997026 -7.613262,0 c -0.67295,0 -1.378332,-0.7134896 -1.378332,-1.3864402 z"
     id="path8-6"
     inkscape:connector-curvature="0"
     sodipodi:nodetypes="ccssc" />
  <rect
     style="fill:#f9f9f9;fill-opacity:1;fill-rule:evenodd;stroke:none"
     id="rect3029"
     width="6"
     height="5"
     x="10"
     y="11" />
  <rect
     style="fill:#f9f9f9;fill-opacity:1;fill-rule:evenodd;stroke:none"
     id="rect3031"
     width="5"
     height="1"
     x="17"
     y="11" />
  <path
     style="fill:#000000;fill-opacity:0.19599998"
     d="m 4,24 0,6.667969 C 4,31.316407 4.6874999,32 5.3320309,32 L 26.667969,32 C 27.3125,32 28,31.316407 28,30.667969 L 28,24 z"
     id="path26"
     inkscape:connector-curvature="0" />
  <rect
     style="fill:#f9f9f9;fill-opacity:1;fill-rule:evenodd;stroke:none"
     id="rect3033"
     width="5"
     height="1"
     x="17"
     y="12.999999" />
  <g
     style="fill:#ffffff"
     id="g28"
     transform="matrix(1.0497949,0,0,1.0497949,-0.79671876,-0.49384768)">
    <path
       d="m 10.871094,24.667969 c 0.339844,0 0.644531,0.03125 0.921875,0.101562 0.273437,0.06641 0.511719,0.171875 0.710937,0.316407 0.199219,0.140624 0.347656,0.320312 0.449219,0.542968 0.109375,0.214844 0.164063,0.472656 0.164063,0.765625 0,0.308594 -0.07031,0.585938 -0.210938,0.835938 -0.140625,0.25 -0.375,0.441406 -0.699219,0.570312 0.109375,0.148438 0.222657,0.3125 0.34375,0.496094 0.121094,0.175781 0.242188,0.363281 0.355469,0.5625 0.117188,0.191406 0.226562,0.386719 0.328125,0.585937 0.109375,0.195313 0.199219,0.378907 0.277344,0.554688 l -1.238281,0 C 12.125,29.660156 11.953125,29.332031 11.753906,29.019531 11.5625,28.703125 11.355469,28.382812 11.128906,28.058594 l -0.613281,0 0,1.941406 -1.183594,0 0,-5.195312 c 0.117188,-0.02344 0.242188,-0.04297 0.375,-0.0625 0.140625,-0.02344 0.28125,-0.03516 0.421875,-0.04297 0.144532,-0.01172 0.277344,-0.01953 0.40625,-0.02344 0.128906,-0.0078 0.238282,-0.0078 0.335938,-0.0078 m 1.046875,1.71875 c 0,-0.277344 -0.09766,-0.480469 -0.289063,-0.613281 -0.191406,-0.128907 -0.445312,-0.195313 -0.757812,-0.195313 -0.04687,0 -0.101563,0.0039 -0.164063,0.0078 -0.0625,0 -0.128906,0.0078 -0.191406,0.01953 l 0,1.582031 0.257813,0 c 0.402343,0 0.695312,-0.06641 0.875,-0.203125 0.179687,-0.140625 0.269531,-0.339844 0.269531,-0.597656"
       id="path30"
       inkscape:connector-curvature="0" />
    <path
       d="m 18.179688,24.726562 0,0.867188 -1.566407,0 0,4.40625 -1.191406,0 0,-4.40625 -1.5625,0 0,-0.867188 4.320313,0"
       id="path32"
       inkscape:connector-curvature="0" />
    <path
       d="m 19.027344,30 0,-5.273438 3.640625,0 0,0.867188 -2.460938,0 0,1.28125 2.152344,0 0,0.867188 -2.152344,0 0,2.257812 -1.179687,0"
       id="path34"
       inkscape:connector-curvature="0" />
  </g>
  <rect
     style="fill:#f9f9f9;fill-opacity:1;fill-rule:evenodd;stroke:none"
     id="rect3035"
     width="5"
     height="1"
     x="17"
     y="14.999999" />
  <rect
     style="fill:#f9f9f9;fill-opacity:1;fill-rule:evenodd;stroke:none"
     id="rect3037"
     width="12"
     height="1"
     x="10"
     y="17" />
  <rect
     style="fill:#f9f9f9;fill-opacity:1;fill-rule:evenodd;stroke:none"
     id="rect3039"
     width="12"
     height="1"
     x="10"
     y="19" />
  <rect
     style="fill:#f9f9f9;fill-opacity:1;fill-rule:evenodd;stroke:none"
     id="rect3041"
     width="12"
     height="1"
     x="10"
     y="21" />
</svg>

<svg width="32" xmlns="http://www.w3.org/2000/svg" height="32" viewBox="0 0 32 32" xmlns:xlink="http://www.w3.org/1999/xlink">
<path style="fill:#3468ce" d="M 5.332031 0.667969 C 4.648438 0.667969 4 1.3125 4 2 L 4 30 C 4 30.648438 4.6875 31.332031 5.332031 31.332031 L 26.667969 31.332031 C 27.3125 31.332031 28 30.648438 28 30 L 28 9.332031 L 19.332031 0.667969 Z "/>
<path style="fill:#000;fill-opacity:.196" d="M 19.332031 8 L 19.375 8.042969 L 19.480469 8 Z M 20.667969 9.332031 L 28 16.667969 L 28 9.332031 Z "/>
<path style="fill:#fff;fill-opacity:.392" d="M 19.332031 0.667969 L 28 9.332031 L 20.667969 9.332031 C 20.019531 9.332031 19.332031 8.648438 19.332031 8 Z "/>
<path style="fill:#fff" d="M 10.71875 10.667969 L 15.28125 10.667969 C 15.492188 10.667969 15.667969 10.847656 15.667969 11.066406 L 15.667969 14.933594 C 15.667969 15.152344 15.492188 15.332031 15.28125 15.332031 L 10.71875 15.332031 C 10.507812 15.332031 10.332031 15.152344 10.332031 14.933594 L 10.332031 11.066406 C 10.332031 10.847656 10.507812 10.667969 10.71875 10.667969 Z "/>
<g style="fill:none;stroke:#fff;stroke-linecap:round;stroke-linejoin:round">
<path d="M 26.498047 17.5 L 31.501953 17.5 " transform="matrix(.66667 0 0 .66667 -.33333 -.66667)"/>
<path d="M 26.498047 20.5 L 31.501953 20.5 " transform="matrix(.66667 0 0 .66667 -.33333 -.66667)"/>
<path d="M 26.498047 23.5 L 31.501953 23.5 " transform="matrix(.66667 0 0 .66667 -.33333 -.66667)"/>
<path d="M 15.998047 26.5 L 32 26.5 " transform="matrix(.66667 0 0 .66667 -.33333 -.66667)"/>
<path d="M 15.998047 29.5 L 32 29.5 " transform="matrix(.66667 0 0 .66667 -.33333 -.66667)"/>
<path d="M 15.998047 32.5 L 32 32.5 " transform="matrix(.66667 0 0 .66667 -.33333 -.66667)"/>
</g>
<path style="fill:#000;fill-opacity:.196" d="M 4 23.332031 L 4 30 C 4 30.648438 4.6875 31.332031 5.332031 31.332031 L 26.667969 31.332031 C 27.3125 31.332031 28 30.648438 28 30 L 28 23.332031 Z "/>
<g style="fill:#fff">
<path d="M 10.871094 24.667969 C 11.210938 24.667969 11.515625 24.699219 11.792969 24.769531 C 12.066406 24.835938 12.304688 24.941406 12.503906 25.085938 C 12.703125 25.226562 12.851562 25.40625 12.953125 25.628906 C 13.0625 25.84375 13.117188 26.101562 13.117188 26.394531 C 13.117188 26.703125 13.046875 26.980469 12.90625 27.230469 C 12.765625 27.480469 12.53125 27.671875 12.207031 27.800781 C 12.316406 27.949219 12.429688 28.113281 12.550781 28.296875 C 12.671875 28.472656 12.792969 28.660156 12.90625 28.859375 C 13.023438 29.050781 13.132812 29.246094 13.234375 29.445312 C 13.34375 29.640625 13.433594 29.824219 13.511719 30 L 12.273438 30 C 12.125 29.660156 11.953125 29.332031 11.753906 29.019531 C 11.5625 28.703125 11.355469 28.382812 11.128906 28.058594 L 10.515625 28.058594 L 10.515625 30 L 9.332031 30 L 9.332031 24.804688 C 9.449219 24.78125 9.574219 24.761719 9.707031 24.742188 C 9.847656 24.71875 9.988281 24.707031 10.128906 24.699219 C 10.273438 24.6875 10.40625 24.679688 10.535156 24.675781 C 10.664062 24.667969 10.773438 24.667969 10.871094 24.667969 M 11.917969 26.386719 C 11.917969 26.109375 11.820312 25.90625 11.628906 25.773438 C 11.4375 25.644531 11.183594 25.578125 10.871094 25.578125 C 10.824219 25.578125 10.769531 25.582031 10.707031 25.585938 C 10.644531 25.585938 10.578125 25.59375 10.515625 25.605469 L 10.515625 27.1875 L 10.773438 27.1875 C 11.175781 27.1875 11.46875 27.121094 11.648438 26.984375 C 11.828125 26.84375 11.917969 26.644531 11.917969 26.386719 "/>
<path d="M 18.179688 24.726562 L 18.179688 25.59375 L 16.613281 25.59375 L 16.613281 30 L 15.421875 30 L 15.421875 25.59375 L 13.859375 25.59375 L 13.859375 24.726562 L 18.179688 24.726562 "/>
<path d="M 19.027344 30 L 19.027344 24.726562 L 22.667969 24.726562 L 22.667969 25.59375 L 20.207031 25.59375 L 20.207031 26.875 L 22.359375 26.875 L 22.359375 27.742188 L 20.207031 27.742188 L 20.207031 30 L 19.027344 30 "/>
</g>
</svg>
